src/assets/svg/background-init.svg

<svg height="66" preserveAspectRatio="none" viewBox="0 0 440 66" width="440" xmlns="http://www.w3.org/2000/svg"><path d="m2 5.01342282v33.40308728c0 .8001342.30548043 1.5825503.87825623 2.2469798l17.71270467 20.5566443c.9587544 1.1126175 2.5640747 1.7798658 4.2818861 1.7798658h406.967011c2.849946 0 5.160142-1.8028188 5.160142-4.0268456v-19.3288591-36.6442953h-432.41992883c-1.4247153 0-2.58007117.90161074-2.58007117 2.01342282" fill="#ffad00" fill-opacity=".7" fill-rule="evenodd" stroke="#ffad00" stroke-width="5"/></svg>

<?xml version="1.0" encoding="UTF-8" standalone="no"?>
<svg preserveAspectRatio="none" width="440px" height="66px" viewBox="0 0 440 66" version="1.1" xmlns="http://www.w3.org/2000/svg" xmlns:xlink="http://www.w3.org/1999/xlink">
    <!-- Generator: Sketch 3.6.1 (26313) - http://www.bohemiancoding.com/sketch -->
    <title>background-init</title>
    <desc>Created with Sketch.</desc>
    <defs></defs>
    <g id="Page-1" stroke="none" stroke-width="1" fill="none" fill-rule="evenodd" fill-opacity="0.7">
        <g id="background-init" stroke="#FFAD00" stroke-width="5" fill="#FFAD00">
            <path d="M2,5.01342282 L2,38.4165101 C2,39.2166443 2.30548043,39.9990604 2.87825623,40.6634899 L20.5909609,61.2201342 C21.5497153,62.3327517 23.1550356,63 24.872847,63 L431.839858,63 C434.689804,63 437,61.1971812 437,58.9731544 L437,39.6442953 L437,3 L4.58007117,3 C3.15535587,3 2,3.90161074 2,5.01342282" id="Page-1"></path>
        </g>
    </g>
</svg>
